**kern	**kern	**dynam
*part1	*part1	*part1
*staff2	*staff1	*
*I"Piano	*	*
*clefF4	*clefG2	*
*k[f#c#]	*k[f#c#]	*
=1	=1	=1
[2.GG 2.G_	2d 2b	>
*	*^	*
.	[4g	(4e	.
=	=	=	=
4GG] 4G]	2g]	4d	]
!	!	!	!LO:DY:a
4GG	.	4B)	<
*	*v	*v	*
4G	4d 4b	[[
=	=	=
2.D 2.G 2.A	[2.d [2.dd	.
=	=	=
(4DD	4d] 4dd]	.
4F#	(4d 4a	.
4E	4c# 4g	.
=	=	=
*	*^	*
4D	8f#L	2d	.
.	8gJ	.	.
4FF#)	4a)	.	.
(4AA	(4f#	4c#	.
=	=	=	=
4BB	8dL	2B	.
.	8eJ	.	.
4DD	4f#)	.	.
*	*v	*v	*
4FF#)	4A 4d	.
=	=	=
2.GG 2.D	2.G 2.B	.
=	=	=
*	*^	*
2.DD 2.AA	2.d	2.F#< 2.A<	.
=	=	=	=
2.DD; 2.AA	2.d;	2.F#< 2.A<	.
*	*v	*v	*
==	==	==
*-	*-	*-
!!!system-decoration: {(s1,s2)}
!!!RDF**kern: < = below
